svg/u1f61e.svg

<svg viewBox="0 0 128 128" xmlns="http://www.w3.org/2000/svg">
  <g id="gold">
    <radialGradient id="face_1_" cx="63.6" cy="1992.9" gradientTransform="matrix(1 0 0 1 0 -1930)" gradientUnits="userSpaceOnUse" r="56.9597">
      <stop offset="0.5" stop-color="#FDE030"/>
      <stop offset="0.92" stop-color="#F7C02B"/>
      <stop offset="1" stop-color="#F4A223"/>
    </radialGradient>
    <path id="face" d="M63.6,118.8c-27.9,0-58-17.5-58-55.9S35.7,7,63.6,7c15.5,0,29.8,5.1,40.4,14.4 c11.5,10.2,17.6,24.6,17.6,41.5s-6.1,31.2-17.6,41.4C93.4,113.6,79,118.8,63.6,118.8z" fill="url(#face_1_)"/>
    <path d="M111.49,29.67c5.33,8.6,8.11,18.84,8.11,30.23c0,16.9-6.1,31.2-17.6,41.4 c-10.6,9.3-25,14.5-40.4,14.5c-18.06,0-37-7.35-48.18-22.94c10.76,17.66,31,25.94,50.18,25.94c15.4,0,29.8-5.2,40.4-14.5 c11.5-10.2,17.6-24.5,17.6-41.4C121.6,50.16,118.13,38.84,111.49,29.67z" fill="#EB8F00"/>
  </g>
  <g id="facial_expressions">
    <g id="disappointed-face">
      <path id="mouth" d="M64,87.2c10.8,0,17.8,7.9,19.7,11.6c0.7,1.4,0.7,2.6,0.1,3.1c-0.64,0.4-1.46,0.4-2.1,0 c-0.32-0.13-0.62-0.3-0.9-0.5c-4.9-3.52-10.77-5.44-16.8-5.5c-6.01,0.08-11.87,1.96-16.8,5.4c-0.28,0.2-0.58,0.37-0.9,0.5 c-0.64,0.4-1.46,0.4-2.1,0c-0.6-0.6-0.6-1.7,0.1-3.1C46.2,95.1,53.2,87.2,64,87.2z" fill="#422B0D"/>
      <g id="eyes">
        <path d="M74.4,67.7c-1.36,1.26-1.44,3.38-0.18,4.73c0.2,0.22,0.43,0.41,0.68,0.57 c2.92,2.17,6.2,3.8,9.7,4.8c3.53,0.88,7.18,1.15,10.8,0.8c1.88-0.05,3.37-1.62,3.32-3.5c-0.01-0.27-0.05-0.54-0.12-0.8 c-0.59-1.73-2.28-2.84-4.1-2.7c-2.68,0.26-5.38,0.1-8-0.5c-2.58-0.79-5.02-2.01-7.2-3.6C77.82,66.41,75.78,66.49,74.4,67.7z" fill="#422B0D"/>
        <path d="M53.6,67.7c1.36,1.26,1.44,3.38,0.18,4.73c-0.2,0.22-0.43,0.41-0.68,0.57 c-2.92,2.17-6.2,3.8-9.7,4.8c-3.53,0.88-7.18,1.15-10.8,0.8c-1.83-0.03-3.28-1.54-3.25-3.37c0.01-0.32,0.06-0.63,0.15-0.93 c0.59-1.73,2.28-2.84,4.1-2.7c2.68,0.26,5.38,0.1,8-0.5c2.58-0.79,5.02-2.01,7.2-3.6C50.24,66.41,52.26,66.49,53.6,67.7z" fill="#422B0D"/>
      </g>
    </g>
  </g>
</svg>

<svg viewBox="0 0 128 128" xmlns="http://www.w3.org/2000/svg">
  <defs>
    <radialGradient id="face_1_" cx="63.6" cy="62.9" gradientUnits="userSpaceOnUse" r="56.9597">
      <stop offset="0.5" stop-color="#FDE030"/>
      <stop offset="0.92" stop-color="#F7C02B"/>
      <stop offset="1" stop-color="#F4A223"/>
    </radialGradient>
  </defs>
  <path id="face" d="M63.6,118.8 C35.7,118.8 5.6,101.3 5.6,62.9 C5.6,24.5 35.7,7 63.6,7 C79.1,7 93.4,12.1 104,21.4 C115.5,31.6 121.6,46 121.6,62.9 C121.6,79.8 115.5,94.1 104,104.3 C93.4,113.6 79,118.8 63.6,118.8 Z" fill="url(#face_1_)"/>
  <path d="M111.49,29.67 C116.82,38.27 119.6,48.51 119.6,59.9 C119.6,76.8 113.5,91.1 102,101.3 C91.4,110.6 77,115.8 61.6,115.8 C43.54,115.8 24.6,108.45 13.42,92.86 C24.18,110.52 44.42,118.8 63.6,118.8 C79,118.8 93.4,113.6 104,104.3 C115.5,94.1 121.6,79.8 121.6,62.9 C121.6,50.16 118.13,38.84 111.49,29.67 Z" fill="#EB8F00"/>
  <path id="mouth" d="M64,87.2 C74.8,87.2 81.8,95.1 83.7,98.8 C84.4,100.2 84.4,101.4 83.8,101.9 C83.16,102.3 82.34,102.3 81.7,101.9 C81.38,101.77 81.08,101.6 80.8,101.4 C75.9,97.88 70.03,95.96 64,95.9 C57.99,95.98 52.13,97.86 47.2,101.3 C46.92,101.5 46.62,101.67 46.3,101.8 C45.66,102.2 44.84,102.2 44.2,101.8 C43.6,101.2 43.6,100.1 44.3,98.7 C46.2,95.1 53.2,87.2 64,87.2 Z" fill="#422B0D"/>
  <path d="M74.4,67.7 C73.04,68.96 72.96,71.08 74.22,72.43 C74.42,72.65 74.65,72.84 74.9,73 C77.82,75.17 81.1,76.8 84.6,77.8 C88.13,78.68 91.78,78.95 95.4,78.6 C97.28,78.55 98.77,76.98 98.72,75.1 C98.71,74.83 98.67,74.56 98.6,74.3 C98.01,72.57 96.32,71.46 94.5,71.6 C91.82,71.86 89.12,71.7 86.5,71.1 C83.92,70.31 81.48,69.09 79.3,67.5 C77.82,66.41 75.78,66.49 74.4,67.7 Z" fill="#422B0D"/>
  <path d="M53.6,67.7 C54.96,68.96 55.04,71.08 53.78,72.43 C53.58,72.65 53.35,72.84 53.1,73 C50.18,75.17 46.9,76.8 43.4,77.8 C39.87,78.68 36.22,78.95 32.6,78.6 C30.77,78.57 29.32,77.06 29.35,75.23 C29.36,74.91 29.41,74.6 29.5,74.3 C30.09,72.57 31.78,71.46 33.6,71.6 C36.28,71.86 38.98,71.7 41.6,71.1 C44.18,70.31 46.62,69.09 48.8,67.5 C50.24,66.41 52.26,66.49 53.6,67.7 Z" fill="#422B0D"/>
</svg>
